X:23
T:The Pig that Wouldn't Sneeze
C:Paddy O'Brien (Offaly)
R:slip jig
D:Snug in the Blanket,P.O'Brien,J.Gans,D.Sproule
Z:Paul Stewart Cranford (P.S.C.), <http://www.cranfordpub.com>
L:1/8
Q:333
M:9/8
K:Ador % and G
A3 A2 G FED| A3 A2 B dBG|A3 A2 G FED|E2 A A2 B A2 G:|
|:B2 d d2 c BAG|E2 A A2 G FED|B2 d d2 c BAG|E2 A A2 B A2 G:|
|:B2 d e2 f g2 d|E2 A A2 G FED|B2 d e2 f g2 d|E2 A A2 B A2 G:|
